app/images/src/icons/userstar.svg

<svg width="50" height="50" viewBox="0 0 50 50" fill="none" xmlns="http://www.w3.org/2000/svg">
<g clip-path="url(#clip0_235_46629)">
<rect width="50" height="50" fill="#FBE0E0"/>
<path d="M24.1849 13.0703C23.0646 13.3516 22.1599 14.2797 21.8833 15.4234C21.7568 15.9531 21.8037 16.75 21.9865 17.2469C22.3333 18.1797 23.0318 18.8641 23.9693 19.1969C24.2365 19.2906 24.363 19.3047 24.9771 19.3047C25.624 19.3047 25.7083 19.2953 26.0224 19.1781C26.2146 19.1078 26.4865 18.9812 26.6318 18.8969C26.974 18.6953 27.513 18.1562 27.7146 17.8141C28.3099 16.8016 28.3099 15.5266 27.7146 14.5141C27.513 14.1719 26.974 13.6328 26.6318 13.4312C26.1255 13.1312 25.7505 13.0328 25.0708 13.0141C24.649 13.0047 24.3771 13.0234 24.1849 13.0703Z" fill="url(#paint0_linear_235_46629)"/>
<path d="M21.3022 20.125C21.11 20.1719 20.7725 20.2984 20.5522 20.4109C20.224 20.575 20.0647 20.6969 19.699 21.0625C19.3147 21.4469 19.2209 21.5687 19.0381 21.9531C18.6819 22.6844 18.6725 22.7547 18.6725 24.8406C18.6725 26.5469 18.6772 26.6734 18.7615 26.8C18.8084 26.8703 18.9115 26.9734 18.9819 27.0203C19.1131 27.1047 19.3147 27.1094 25.0006 27.1094C30.6865 27.1094 30.8881 27.1047 31.0194 27.0203C31.0897 26.9734 31.1928 26.8703 31.2397 26.8C31.324 26.6734 31.3287 26.5469 31.3287 24.8687C31.3287 22.8016 31.31 22.6656 30.9631 21.9531C30.7803 21.5687 30.6865 21.4469 30.3022 21.0625C29.9365 20.6969 29.7772 20.575 29.4537 20.4156C28.6615 20.0219 28.76 20.0312 24.9819 20.0359C21.9303 20.0359 21.6209 20.0453 21.3022 20.125Z" fill="url(#paint1_linear_235_46629)"/>
<path d="M24.7193 27.9391C24.5552 28.0047 24.349 28.2672 23.7349 29.2188L23.0787 30.2266L21.8505 30.5547C20.4818 30.9203 20.374 30.9766 20.2709 31.3656C20.1771 31.7031 20.2474 31.8344 21.1052 32.8984L21.9021 33.8875L21.8365 35.1438C21.7709 36.3625 21.7709 36.4141 21.8599 36.6063C21.9724 36.8688 22.1834 37 22.4834 37C22.6521 37 22.9755 36.8969 23.8146 36.5781C24.424 36.3484 24.9584 36.1563 25.0005 36.1563C25.0427 36.1563 25.5771 36.3484 26.1865 36.5781C27.0255 36.8969 27.349 37 27.5177 37C27.8177 37 28.0287 36.8688 28.1412 36.6063C28.2302 36.4141 28.2302 36.3625 28.1646 35.1438L28.099 33.8875L28.8959 32.8984C29.7537 31.8344 29.824 31.7031 29.7302 31.3656C29.6271 30.9766 29.5193 30.9203 28.1505 30.5547L26.9271 30.2266L26.2662 29.2188C25.9052 28.6609 25.549 28.1453 25.4693 28.0703C25.3521 27.9578 25.2818 27.9344 25.0615 27.9203C24.9115 27.9156 24.7568 27.9203 24.7193 27.9391Z" fill="url(#paint2_linear_235_46629)"/>
<path d="M16.0006 30.658C15.8787 30.7189 15.7193 30.9158 15.3865 31.4173C15.1334 31.7877 14.9037 32.1064 14.8709 32.1252C14.8334 32.1439 14.51 32.2423 14.149 32.3361C13.4131 32.533 13.31 32.5798 13.1459 32.7533C13.0053 32.9033 12.9537 33.3533 13.0475 33.5361C13.0803 33.597 13.3193 33.9064 13.5771 34.2252L14.0412 34.8017L14.0131 35.6548C13.9803 36.4611 13.985 36.5173 14.074 36.6627C14.1303 36.747 14.2381 36.8548 14.3225 36.9064C14.5803 37.0658 14.8381 37.0283 15.5881 36.7423C15.9537 36.6017 16.2912 36.4845 16.3287 36.4845C16.3662 36.4845 16.7037 36.6017 17.0693 36.7423C17.8381 37.0377 18.0865 37.0658 18.349 36.8923C18.6537 36.6908 18.6865 36.5502 18.6396 35.6314L18.6021 34.8205L19.0521 34.258C19.6615 33.4845 19.6568 33.4986 19.6568 33.2267C19.6568 32.9642 19.5443 32.7392 19.3521 32.6127C19.2818 32.5705 19.0053 32.472 18.7287 32.397C18.4521 32.322 18.1146 32.233 17.9787 32.1908L17.735 32.1205L17.2943 31.4502C17.0506 31.0752 16.7975 30.7377 16.7271 30.6908C16.5443 30.5736 16.1975 30.5548 16.0006 30.658Z" fill="url(#paint3_linear_235_46629)"/>
<path d="M33.3444 30.658C33.2225 30.7189 33.0678 30.9111 32.749 31.3939C32.5147 31.7502 32.299 32.0642 32.2756 32.0877C32.2475 32.1158 31.8959 32.2283 31.4928 32.3361C31.0897 32.4486 30.71 32.5752 30.6444 32.6173C30.4569 32.7392 30.3444 32.9642 30.3444 33.2267C30.3444 33.4986 30.3397 33.4845 30.949 34.258L31.399 34.8205L31.3615 35.6314C31.3147 36.5502 31.3475 36.6908 31.6522 36.8923C31.9147 37.0658 32.1584 37.0377 32.9365 36.7423C33.3069 36.6017 33.6397 36.4845 33.6772 36.4845C33.7147 36.4845 34.0475 36.6017 34.4131 36.7423C35.1631 37.0283 35.4209 37.0658 35.6787 36.9064C35.7631 36.8548 35.8709 36.747 35.9272 36.6627C36.0162 36.5173 36.0209 36.4611 35.9881 35.6548L35.96 34.8017L36.424 34.2252C36.6819 33.9064 36.9209 33.597 36.9537 33.5361C37.0475 33.3533 36.9959 32.9033 36.8553 32.7533C36.6912 32.5798 36.574 32.5283 35.9459 32.3595C35.6365 32.2798 35.3178 32.1908 35.2334 32.1673C35.1115 32.1298 35.0037 31.9986 34.6381 31.4455C34.3944 31.0752 34.1365 30.7377 34.0709 30.6908C33.8881 30.5736 33.5412 30.5548 33.3444 30.658Z" fill="url(#paint4_linear_235_46629)"/>
</g>
<defs>
<linearGradient id="paint0_linear_235_46629" x1="21.8121" y1="16.1582" x2="28.1611" y2="16.1582" gradientUnits="userSpaceOnUse">
<stop stop-color="#E81212"/>
<stop offset="1" stop-color="#FCCD05"/>
</linearGradient>
<linearGradient id="paint1_linear_235_46629" x1="18.6725" y1="23.5721" x2="31.3287" y2="23.5721" gradientUnits="userSpaceOnUse">
<stop stop-color="#E81212"/>
<stop offset="1" stop-color="#FCCD05"/>
</linearGradient>
<linearGradient id="paint2_linear_235_46629" x1="20.2393" y1="32.4593" x2="29.7618" y2="32.4593" gradientUnits="userSpaceOnUse">
<stop stop-color="#E81212"/>
<stop offset="1" stop-color="#FCCD05"/>
</linearGradient>
<linearGradient id="paint3_linear_235_46629" x1="13" y1="33.7953" x2="19.6568" y2="33.7953" gradientUnits="userSpaceOnUse">
<stop stop-color="#E81212"/>
<stop offset="1" stop-color="#FCCD05"/>
</linearGradient>
<linearGradient id="paint4_linear_235_46629" x1="30.3444" y1="33.7953" x2="37.0012" y2="33.7953" gradientUnits="userSpaceOnUse">
<stop stop-color="#E81212"/>
<stop offset="1" stop-color="#FCCD05"/>
</linearGradient>
<clipPath id="clip0_235_46629">
<rect width="50" height="50" rx="25" fill="white"/>
</clipPath>
</defs>
</svg>

<svg width="50" height="50" fill="none" xmlns="http://www.w3.org/2000/svg"><g clip-path="url(#a)"><path fill="#FBE0E0" d="M0 0h50v50H0z"/><path d="M24.185 13.07c-1.12.282-2.025 1.21-2.302 2.353-.126.53-.08 1.327.104 1.824a3.22 3.22 0 0 0 1.982 1.95c.267.094.394.108 1.008.108.647 0 .731-.01 1.045-.127.193-.07.465-.197.61-.281.342-.202.881-.74 1.083-1.083a3.272 3.272 0 0 0 0-3.3c-.202-.342-.741-.881-1.083-1.083-.507-.3-.882-.398-1.561-.417-.422-.01-.694.01-.886.056Z" fill="url(#b)"/><path d="M21.302 20.125c-.192.047-.53.173-.75.286-.328.164-.487.286-.853.651-.384.385-.478.507-.66.891-.357.731-.367.802-.367 2.888 0 1.706.005 1.832.09 1.959.046.07.15.173.22.22.131.085.333.09 6.019.09 5.685 0 5.887-.005 6.018-.09a.984.984 0 0 0 .22-.22c.085-.127.09-.253.09-1.931 0-2.067-.019-2.203-.366-2.916-.183-.384-.277-.506-.66-.89-.367-.366-.526-.488-.85-.647-.791-.394-.693-.385-4.471-.38-3.052 0-3.361.01-3.68.089Z" fill="url(#c)"/><path d="M24.72 27.94c-.165.065-.371.327-.985 1.279l-.656 1.008-1.229.328c-1.368.365-1.476.422-1.58.81-.093.338-.023.47.835 1.533l.797.99-.066 1.256c-.065 1.218-.065 1.27.024 1.462.112.263.323.394.623.394.17 0 .492-.103 1.332-.422.609-.23 1.143-.422 1.185-.422.043 0 .577.192 1.186.422.84.319 1.163.422 1.332.422.3 0 .51-.131.623-.394.09-.192.09-.244.024-1.462l-.066-1.256.797-.99c.858-1.064.928-1.195.834-1.532-.103-.39-.21-.446-1.58-.811l-1.223-.328-.66-1.008c-.362-.558-.718-1.074-.798-1.149-.117-.112-.187-.136-.408-.15-.15-.004-.304 0-.342.02Z" fill="url(#d)"/><path d="M16 30.658c-.121.06-.28.258-.614.76-.253.37-.482.688-.515.707a9.032 9.032 0 0 1-.722.211c-.736.197-.839.244-1.003.417-.14.15-.192.6-.099.783.033.061.272.37.53.69l.464.576-.028.853c-.033.806-.028.862.061 1.008a.947.947 0 0 0 .248.243c.258.16.516.122 1.266-.164.366-.14.703-.258.74-.258.038 0 .376.118.741.258.77.296 1.018.324 1.28.15.305-.201.337-.342.29-1.26l-.037-.811.45-.563c.61-.774.605-.76.605-1.031 0-.263-.113-.488-.305-.614-.07-.042-.347-.141-.623-.216-.277-.075-.614-.164-.75-.206l-.244-.07-.44-.67c-.244-.376-.498-.713-.568-.76-.183-.117-.53-.136-.726-.033Z" fill="url(#e)"/><path d="M33.344 30.658c-.122.06-.276.253-.595.736-.234.356-.45.67-.473.694-.029.028-.38.14-.783.248-.403.113-.783.24-.849.281-.187.122-.3.347-.3.61 0 .272-.004.258.605 1.031l.45.563-.038.81c-.046.92-.014 1.06.291 1.261.263.174.506.146 1.285-.15.37-.14.703-.258.74-.258.038 0 .37.118.736.258.75.286 1.008.324 1.266.164a.947.947 0 0 0 .248-.243c.09-.146.094-.202.061-1.008l-.028-.853.464-.577c.258-.319.497-.628.53-.689.093-.183.042-.633-.099-.783-.164-.173-.281-.225-.91-.394-.309-.08-.627-.168-.712-.192-.121-.037-.23-.168-.595-.722-.244-.37-.502-.707-.567-.754-.183-.117-.53-.136-.727-.033Z" fill="url(#f)"/></g><defs><linearGradient id="b" x1="21.812" y1="16.158" x2="28.161" y2="16.158" gradientUnits="userSpaceOnUse"><stop stop-color="#E81212"/><stop offset="1" stop-color="#FCCD05"/></linearGradient><linearGradient id="c" x1="18.672" y1="23.572" x2="31.329" y2="23.572" gradientUnits="userSpaceOnUse"><stop stop-color="#E81212"/><stop offset="1" stop-color="#FCCD05"/></linearGradient><linearGradient id="d" x1="20.239" y1="32.459" x2="29.762" y2="32.459" gradientUnits="userSpaceOnUse"><stop stop-color="#E81212"/><stop offset="1" stop-color="#FCCD05"/></linearGradient><linearGradient id="e" x1="13" y1="33.795" x2="19.657" y2="33.795" gradientUnits="userSpaceOnUse"><stop stop-color="#E81212"/><stop offset="1" stop-color="#FCCD05"/></linearGradient><linearGradient id="f" x1="30.344" y1="33.795" x2="37.001" y2="33.795" gradientUnits="userSpaceOnUse"><stop stop-color="#E81212"/><stop offset="1" stop-color="#FCCD05"/></linearGradient><clipPath id="a"><rect width="50" height="50" rx="25" fill="#fff"/></clipPath></defs></svg>
